X:1
T:Title
%%score { ( 1 4 ) | ( 2 3 ) }
L:1/8
M:3/4
K:Eb
V:1 treble nm="Grand Piano"
V:4 treble 
V:2 bass 
V:3 bass 
V:1
 z2 z[Q:1/4=92] G G>G | G3 G [B,EB]>[B,EB] | [B,DF]3 A A>A | A3 A [Cc]>[Cc] |[M:5/8] E2 D z2 | %5
[M:1/8] E |[M:3/4] EF G[FA] [GB][Ge] | e2 z2 z2 | [B,EG]3 [B,FA] [B,EG]>[A,DF] |[M:3/8] [G,B,E]3 | %10
 [B,EG][B,GB]>[B,EG] |[M:3/4] [FA]3 [Ac] [GB]>[DF] | G3 G G>[FA] | [GB]3 [Ac] [B_d]>[Bd] | %14
[M:3/8] c2 z | ce>c |[M:3/4] e3 f e>c | B4 [Ec]2 | [G,B,E]3 [G,B,E] [A,CE]>[A,DF] | %19
[M:3/8] [G,E]3 |] %20
V:2
 z2 z [E,B,E] [E,B,E]>[E,B,E] | [E,B,E]3 [E,B,E] G,,>G,, | B,,3 [F,C] [F,C]>[F,C] | %3
 [F,C]3 [F,C] [A,,F,]>[A,,F,] |[M:5/8] G,2 z z2 |[M:1/8] G, |[M:3/4] G,B, E[E,E] [E,E][E,_D] | %7
 [A,CA][A,C] [A,EA]2[K:bass] A,,2 | B,,3 B,, B,,>B,, |[M:3/8] E,3 | E,E,>E, | %11
[M:3/4] [B,,B,]3 [B,,B,] [B,,B,]>[B,,B,] | [E,B,E]3 [E,B,E] [E,B,E]>[E,B,] | %13
 [E,E]3 [E,E] [E,E]>[K:treble][G,E] |[M:3/8] [A,EA]2 z | [A,EA][A,CA]>[A,EA] | %16
[M:3/4] [A,CA]3 [A,=B,A] [A,CA]>[K:bass][A,E] | [E,G,E]4 [A,,A,]2 | B,,3 B,, B,,>B,, | %19
[M:3/8] E,3 |] %20
V:3
 x6 | x6 | x6 | x6 |[M:5/8] [B,,B,]2- [B,,F,B,] z2 |[M:1/8] x |[M:3/4] x6 | x4[K:bass] x2 | x6 | %9
[M:3/8] x3 | x3 |[M:3/4] x6 | x6 | x11/2[K:treble] x/ |[M:3/8] x3 | x3 |[M:3/4] x11/2[K:bass] x/ | %17
 x6 | x6 |[M:3/8] x3 |] %20
V:4
 x6 | x6 | x6 | x6 |[M:5/8] x5 |[M:1/8] x |[M:3/4] x6 | z A c2 [CFA]2 | x6 |[M:3/8] x3 | x3 | %11
[M:3/4] x6 | x6 | x6 |[M:3/8] x3 | x3 |[M:3/4] x6 | x6 | x6 |[M:3/8] x3 |] %20

